img/sm/renren.svg

<?xml version="1.0" encoding="UTF-8"?>
<svg width="188px" height="187px" viewBox="0 0 188 187" version="1.1" xmlns="http://www.w3.org/2000/svg" xmlns:xlink="http://www.w3.org/1999/xlink">
    <!-- Generator: Sketch 61.2 (89653) - https://sketch.com -->
    <title>形状</title>
    <desc>Created with Sketch.</desc>
    <g id="页面-1" stroke="none" stroke-width="1" fill="none" fill-rule="evenodd">
        <path d="M94.5180209,117.388688 C95.4646875,117.990688 96.2393543,119.281354 96.2393543,120.228021 C96.2393543,121.260688 98.6480209,127.026688 101.574021,133.222688 C104.758688,139.848688 111.384688,149.056688 118.097354,156.199354 C124.292688,162.740021 131.951354,169.796688 135.222688,171.775354 C137.539354,173.131354 136.181354,172.265354 139.195354,174.524021 L139.320688,174.749354 C125.105354,182.930021 110.190021,186.147354 93.9273543,186.559256 C79.8066877,186.609354 65.9953543,183.269354 53.2366877,177.303354 C51.5206877,176.500688 49.9073543,175.494688 48.2426877,174.591354 C49.1553543,173.434021 50.5906877,172.716021 51.8340211,171.948021 C55.0180211,169.968687 62.6773545,163.084021 68.9593545,156.630021 C76.1020211,149.142687 82.0400211,140.881354 85.3960211,133.738021 C88.2360211,127.542687 91.0760211,121.174021 91.6780211,119.454021 C92.2806875,117.733354 93.5713541,116.786688 94.5180209,117.388688 Z M109.188021,0.1246875 C116.867354,1.6946875 118.616688,1.7693541 126.198021,4.5406875 C157.950688,16.1480209 181.616688,44.9706875 186.702021,78.4086875 C189.538021,97.0493541 186.714688,116.387354 178.528688,133.392688 C174.423354,141.921354 170.384688,147.346688 164.456021,154.531354 C161.802688,153.983354 163.340021,154.404021 159.920021,153.016021 C156.736021,151.467354 149.077354,145.529354 143.053354,139.849354 C136.943354,134.169354 129.112688,125.220021 125.584021,120.056688 C122.056021,114.807354 117.839354,106.976021 116.118688,102.760021 C114.397354,98.4566875 111.987354,90.7120209 110.696688,85.5493543 C109.147354,79.0946877 108.372688,63.8626877 108.372688,38.0460209 L109.188021,0.1246875 Z M77.4493541,0.6346875 C78.0273541,12.8546875 78.0880207,18.6993541 78.1206875,22.9906875 C78.2073541,34.4226875 78.2140209,45.8620209 78.1086875,57.2933541 C78.0320209,65.6673541 78.2326875,74.5706875 76.9140209,82.8753541 C76.1860209,87.4620207 76.0113543,87.7106875 74.8973543,91.5713541 C73.0900209,97.2513541 69.8200209,105.427354 67.7546877,109.643354 C65.6033543,113.946021 60.3540211,122.121354 56.0506877,127.887354 C51.7480211,133.566688 43.5726877,141.656021 37.8073543,145.872688 C32.0413543,150.089354 25.8453543,154.048688 23.9520209,154.737354 L23.6400209,154.823354 C17.8840209,148.392021 13.0706875,141.172021 9.3260209,133.392688 C-7.1719791,99.1200209 -1.1506459,57.7680209 24.4526875,29.5946875 C34.6126875,18.4153541 54.7046875,7.0300209 61.6560209,4.5406875 C68.6073541,2.0513541 76.1706875,-0.2173125 77.4493541,0.6346875 Z" id="形状" fill="#DCDCDC" fill-rule="nonzero"></path>
    </g>
</svg>

<svg width="188" height="187" xmlns="http://www.w3.org/2000/svg"><path d="M94.518 117.389c.947.602 1.721 1.892 1.721 2.839 0 1.033 2.409 6.799 5.335 12.995 3.185 6.626 9.81 15.834 16.523 22.976 6.196 6.541 13.854 13.598 17.126 15.576 2.316 1.356.958.49 3.972 2.749l.126.225c-14.216 8.181-29.131 11.398-45.394 11.81-14.12.05-27.932-3.29-40.69-9.256-1.716-.802-3.33-1.808-4.994-2.712.912-1.157 2.348-1.875 3.591-2.643 3.184-1.98 10.843-8.864 17.125-15.318 7.143-7.487 13.081-15.749 16.437-22.892 2.84-6.195 5.68-12.564 6.282-14.284.603-1.72 1.893-2.667 2.84-2.065zM109.188.125c7.68 1.57 9.429 1.644 17.01 4.416 31.753 11.607 55.419 40.43 60.504 73.868 2.836 18.64.013 37.978-8.173 54.984-4.106 8.528-8.144 13.954-14.073 21.138-2.653-.548-1.116-.127-4.536-1.515-3.184-1.549-10.843-7.487-16.867-13.167-6.11-5.68-13.94-14.629-17.469-19.792-3.528-5.25-7.745-13.081-9.465-17.297-1.722-4.303-4.132-12.048-5.422-17.21-1.55-6.455-2.324-21.687-2.324-47.504l.815-37.921zm-31.739.51c.578 12.22.639 18.064.672 22.356.086 11.432.093 22.871-.012 34.302-.077 8.374.124 17.278-1.195 25.582-.728 4.587-.903 4.836-2.017 8.696-1.807 5.68-5.077 13.856-7.142 18.072-2.152 4.303-7.401 12.478-11.704 18.244-4.303 5.68-12.478 13.769-18.244 17.986-5.766 4.216-11.962 8.176-13.855 8.864l-.312.086a91.889 91.889 0 01-14.314-21.43C-7.172 99.12-1.151 57.768 24.453 29.595 34.613 18.415 54.705 7.03 61.656 4.54 68.607 2.05 76.171-.217 77.449.635z" fill="#DCDCDC" fill-rule="nonzero"/></svg>
